archdroid-icon-theme/Archdroid-KellyGreen/status/scalable/battery-000-charging.svg

<svg fill="#00C853" height="48" viewBox="0 0 48 48" width="48" xmlns="http://www.w3.org/2000/svg"><g fill="#00C853"><path d="m22 40v-6h-8v7.33c0 1.47 1.19 2.67 2.67 2.67h14.67c1.47 0 2.67-1.19 2.67-2.67v-7.33h-8.8z" fill-opacity=".294118"/><path d="m31.33 8h-3.33v-4h-8v4h-3.33c-1.48 0-2.67 1.19-2.67 2.67v23.33h8v-5h-4l8-15v11h4l-4.8 9h8.8v-23.33c0-1.48-1.19-2.67-2.67-2.67z" fill-opacity=".3"/></g></svg>

<svg fill="#00C853" height="48" version="1.1" viewBox="0 0 48 48" width="48" xmlns="http://www.w3.org/2000/svg"><path d="M22 40v-6h-8v7.33C14 42.8 15.19 44 16.67 44h14.67c1.47 0 2.67-1.19 2.67-2.67V34h-8.8L22 40z" fill="#00C853" fill-opacity=".294118"/><path d="M31.33 8H28V4h-8v4h-3.33C15.19 8 14 9.19 14 10.67V34h8v-5h-4l8-15v11h4l-4.8 9H34V10.67C34 9.19 32.81 8 31.33 8z" fill-opacity=".3"/></svg>
